X: 40150
T: Tilting The Windmill
R: jig
M: 6/8
K: Dmixolydian
A|:"D" dfe "D" d2d|"D" dcA "D" dcA|"D" dfe "D" d2e|"C" dDE "C" FGA|
"D" dfe "D" d2d|"C" c2e "D" dcA|"D"GFG "D" BAG|1 "D" F2D "D" DFA:|2 "D" F2D "D" D3||
|:"D" A2A "D" cAG|"D" A2A "D" cAG|"D" FEF "D" AFE|"C" D2c "C" AGF|
"D" A2A "D" cAG|"D" AGA "D" cde|"D" fed "C" cAG|1 "D" F2D "D" DFG:|2 "D" F2D "D" D2||

